!!!SOCIAL_FUNCTION:	deer dance songs
!!!PDT:	1932
!!!OTL: No_65_All_is_Darkness.krn
!!!REG: Southwest
!!!LANG: Non-Tone
!!!LING_GROUP: Yuman-Cochimi
**kern
*staff1
=1-
*clefF4
*k[f#c#g#d#]
*M2/4
4r
8r
8E\
=2
4E\
4E\
=3!|:
4B\
4B\
=4
4B\
8B\L
8F#\J
=5
4G#\
8r
8G#\
=6
4B\
8B\L
8F#\J
=7
4G#\
8G#\L
8F#\J
=8
4F#\
4E\
=9
8F#\L
8E\J
4E\
=10
4E\
8E/L
8C#/J
=11
4E\
[4E\
=12
4E\]
8C#/L
8C#/J
=13
4BB/
4r
=14
4G#\
4G#\
=15
4F#\
4E\
=16
8F#\L
8E\J
4E\
=17
4E\
8E/L
8C#/J
=18
4E\
8r
8E\
=19
4E\
4E\
=20
4B\
4B\
=21
4B\
8B\L
8F#\J
=22
4G#\
8r
8G#\
=23
4B\
8B\L
8F#\J
=24
4G#\
8G#\L
8F#\J
=25
4F#\
4E\
=26
8F#\L
8E\J
4E\
=27
4E\
8E/L
8C#/J
=28
4E\
[4E\
=29
4E\]
8C#/L
8C#/J
=30
4BB/
4r
=31
4G#\
8G#\L
8F#\J
=32
4F#\
8F#/L
8C#/J
=33
4E\
8r
8E\
=34
8E\L
8E\J
4E\
=35
4E\
4r
=36
4E\
8E\L
8E\J
=37:|!
=
4E\
8E/L
8C#/J
=38
4E\
4r
==
*-
